assets/Flying saucer/Flat/flying_saucer_flat.svg

<svg width="32" height="32" viewBox="0 0 32 32" fill="none" xmlns="http://www.w3.org/2000/svg">
<path d="M17.4798 18.9C21.042 18.9 23.9298 16.0122 23.9298 12.45C23.9298 8.88776 21.042 6 17.4798 6C13.9175 6 11.0298 8.88776 11.0298 12.45C11.0298 16.0122 13.9175 18.9 17.4798 18.9Z" fill="#26C9FC"/>
<path d="M19.5268 22.0394L11.745 20L5 30H20L19.5268 22.0394Z" fill="#FCD53F"/>
<path d="M2 13.0601C3.05 16.6201 5.85 19.5601 9.7 20.5901L20.15 23.3901C23.99 24.4201 27.9 23.2701 30.58 20.7201L17.0217 15.4156L2 13.0601Z" fill="#9B9B9B"/>
<path d="M30.58 20.72C29.53 17.16 26.73 14.22 22.88 13.19L12.43 10.39C8.59 9.35 4.68 10.5 2 13.06L30.58 20.72Z" fill="#D3D3D3"/>
<path d="M21 11C21.5523 11 22 10.5523 22 10C22 9.44772 21.5523 9 21 9C20.4477 9 20 9.44772 20 10C20 10.5523 20.4477 11 21 11Z" fill="white"/>
<path d="M9.60986 12.6C9.60986 13.1523 9.16215 13.6 8.60986 13.6C8.05758 13.6 7.60986 13.1523 7.60986 12.6C7.60986 12.0477 8.05758 11.6 8.60986 11.6C9.16215 11.6 9.60986 12.0477 9.60986 12.6ZM12.6899 14.69C13.2422 14.69 13.6899 14.2423 13.6899 13.69C13.6899 13.1377 13.2422 12.69 12.6899 12.69C12.1376 12.69 11.6899 13.1377 11.6899 13.69C11.6899 14.2423 12.1376 14.69 12.6899 14.69ZM16.7799 15.79C17.3322 15.79 17.7799 15.3423 17.7799 14.79C17.7799 14.2377 17.3322 13.79 16.7799 13.79C16.2276 13.79 15.7799 14.2377 15.7799 14.79C15.7799 15.3423 16.2276 15.79 16.7799 15.79ZM20.8599 16.88C21.4121 16.88 21.8599 16.4323 21.8599 15.88C21.8599 15.3277 21.4121 14.88 20.8599 14.88C20.3076 14.88 19.8599 15.3277 19.8599 15.88C19.8599 16.4323 20.3076 16.88 20.8599 16.88ZM25.9399 16.97C25.9399 17.5223 25.4922 17.97 24.9399 17.97C24.3876 17.97 23.9399 17.5223 23.9399 16.97C23.9399 16.4177 24.3876 15.97 24.9399 15.97C25.4922 15.97 25.9399 16.4177 25.9399 16.97Z" fill="#321B41"/>
</svg>

<svg xmlns="http://www.w3.org/2000/svg" width="32" height="32" fill="none"><path fill="#26C9FC" d="M17.48 18.9a6.45 6.45 0 1 0 0-12.9 6.45 6.45 0 0 0 0 12.9Z"/><path fill="#FCD53F" d="M19.527 22.04 11.745 20 5 30h15l-.473-7.96Z"/><path fill="#9B9B9B" d="M2 13.06c1.05 3.56 3.85 6.5 7.7 7.53l10.45 2.8c3.84 1.03 7.75-.12 10.43-2.67l-13.558-5.304L2 13.06Z"/><path fill="#D3D3D3" d="M30.58 20.72c-1.05-3.56-3.85-6.5-7.7-7.53l-10.45-2.8C8.59 9.35 4.68 10.5 2 13.06l28.58 7.66Z"/><path fill="#fff" d="M21 11a1 1 0 1 0 0-2 1 1 0 0 0 0 2Z"/><path fill="#321B41" d="M9.61 12.6a1 1 0 1 1-2 0 1 1 0 0 1 2 0Zm3.08 2.09a1 1 0 1 0 0-2 1 1 0 0 0 0 2Zm4.09 1.1a1 1 0 1 0 0-2 1 1 0 0 0 0 2Zm4.08 1.09a1 1 0 1 0 0-2 1 1 0 0 0 0 2Zm5.08.09a1 1 0 1 1-2 0 1 1 0 0 1 2 0Z"/></svg>
